korla/devices/symbolic/uninterruptible-power-supply-symbolic.svg

<svg xmlns="http://www.w3.org/2000/svg" width="16" height="16" version="1.1">
 <path style="fill:#dfdfdf" d="M 4,0 C 4,0 2,0 2,2 V 16 H 14 V 2 C 14,0 12,0 12,0 Z M 8,2 V 5 H 11 L 8,10 V 7 H 5 Z M 5,12 C 5.55,12 6,12.45 6,13 6,13.55 5.55,14 5,14 4.45,14 4,13.55 4,13 4,12.45 4.45,12 5,12 Z"/>
</svg>

<svg style="clip-rule:evenodd;fill-rule:evenodd;stroke-linejoin:round;stroke-miterlimit:2" version="1.1" viewBox="0 0 16 16" xmlns="http://www.w3.org/2000/svg">
 <path d="m4 0s-2 0-2 2v14h12v-14c0-2-2-2-2-2h-8zm9 15v-13c0-1-1-1-1-1h-8s-1 0-1 1v13h10z" style="fill:rgb(223,223,223)"/>
 <path d="m4 0s-2 0-2 2v14h12v-14c0-2-2-2-2-2h-8zm1 12c0.55 0 1 0.45 1 1s-0.45 1-1 1-1-0.45-1-1 0.45-1 1-1z" style="fill-opacity:.3;fill:rgb(223,223,223)"/>
 <g transform="matrix(1 0 0 1.19107 0 .853598)">
  <path d="m8 2v3h3l-3 5v-3h-3l3-5z" style="fill:rgb(223,223,223)"/>
 </g>
</svg>
